svg/cc.svg

<?xml version="1.0" encoding="UTF-8" standalone="no"?>
<!-- Created with Inkscape (http://www.inkscape.org/) -->
<svg
   xmlns:dc="http://purl.org/dc/elements/1.1/"
   xmlns:cc="http://web.resource.org/cc/"
   xmlns:rdf="http://www.w3.org/1999/02/22-rdf-syntax-ns#"
   xmlns:svg="http://www.w3.org/2000/svg"
   xmlns="http://www.w3.org/2000/svg"
   xmlns:sodipodi="http://inkscape.sourceforge.net/DTD/sodipodi-0.dtd"
   xmlns:inkscape="http://www.inkscape.org/namespaces/inkscape"
   width="600"
   height="300"
   id="svg5778"
   sodipodi:version="0.32"
   inkscape:version="0.43"
   version="1.0"
   sodipodi:docbase="C:\Documents and Settings\David Nelson\Archives\Svg"
   sodipodi:docname="Flag of the Cocos (Keeling) Islands.svg">
  <defs
     id="defs5780" />
  <sodipodi:namedview
     id="base"
     pagecolor="#ffffff"
     bordercolor="#666666"
     borderopacity="1.0"
     inkscape:pageopacity="0.0"
     inkscape:pageshadow="2"
     inkscape:zoom="1.1083332"
     inkscape:cx="300.00003"
     inkscape:cy="149.99998"
     inkscape:document-units="px"
     inkscape:current-layer="layer1"
     inkscape:window-width="756"
     inkscape:window-height="540"
     inkscape:window-x="83"
     inkscape:window-y="187" />
  <metadata
     id="metadata5783">
    <rdf:RDF>
      <cc:Work
         rdf:about="">
        <dc:format>image/svg+xml</dc:format>
        <dc:type
           rdf:resource="http://purl.org/dc/dcmitype/StillImage" />
      </cc:Work>
    </rdf:RDF>
  </metadata>
  <g
     inkscape:label="Layer 1"
     inkscape:groupmode="layer"
     id="layer1">
    <rect
       style="fill:#008000;fill-opacity:1;fill-rule:evenodd;stroke:none;stroke-width:1;stroke-linecap:butt;stroke-linejoin:miter;stroke-miterlimit:4;stroke-dasharray:none;stroke-dashoffset:0;stroke-opacity:1"
       id="rect5930"
       width="600.00006"
       height="300.00003"
       x="0"
       y="2.3706079e-006" />
    <path
       sodipodi:type="arc"
       style="fill:#ffe000;fill-opacity:1;fill-rule:evenodd;stroke:none;stroke-width:0.25;stroke-linecap:butt;stroke-linejoin:miter;stroke-miterlimit:4;stroke-dasharray:none;stroke-dashoffset:0;stroke-opacity:1"
       id="path5927"
       sodipodi:cx="73.407516"
       sodipodi:cy="62.039097"
       sodipodi:rx="46.12331"
       sodipodi:ry="46.12331"
       d="M 119.53083 62.039097 A 46.12331 46.12331 0 1 1  27.284206,62.039097 A 46.12331 46.12331 0 1 1  119.53083 62.039097 z"
       transform="matrix(1.415289,0,0,1.415289,-1.115035,-0.303262)" />
    <path
       style="fill:#802000;fill-opacity:1;fill-rule:evenodd;stroke:#7b3100;stroke-width:1.38888896;stroke-linecap:butt;stroke-linejoin:miter;stroke-miterlimit:4;stroke-dasharray:none;stroke-opacity:1"
       d="M 98.458269,136.87176 L 114.80743,136.87176 C 114.80743,136.87176 115.54541,135.37309 114.6428,134.62375 C 113.74019,133.87442 110.22443,133.70946 111.17428,131.05873 C 113.1271,125.60901 113.39958,127.28934 114.62577,114.34625 C 115.85196,101.40317 116.44234,81.102963 116.44234,81.102963 L 114.0808,81.102963 C 114.0808,81.102963 114.53494,87.415555 113.17251,95.635548 C 111.81008,103.85554 111.40135,104.58217 109.90268,110.89476 C 108.40401,117.20736 108.17694,117.75233 106.81451,121.43089 C 105.45208,125.10945 105.31583,125.29111 103.18136,128.69718 C 101.04689,132.10326 101.81893,130.83166 100.63816,132.8753 C 100.04777,133.89712 99.321141,133.62464 98.923766,134.3683 C 98.52639,135.11196 98.458269,136.87176 98.458269,136.87176 z "
       id="path5923"
       sodipodi:nodetypes="ccsssccssssssc" />
    <g
       style="font-size:12px;fill:#ffe000;fill-opacity:1;stroke:none;stroke-opacity:1"
       id="g596"
       transform="matrix(5,0,0,5,0,-1.481079e-5)">
      <polygon
         id="polygon590"
         points="90,45.7143 90.8264,48.2839 93.3507,47.3279 91.857,49.5761 94.1783,50.9537 91.4892,51.1876 91.8595,53.8613 90,51.9048 88.1405,53.8613 88.5108,51.1876 85.8217,50.9537 88.143,49.5761 86.6493,47.3279 89.1736,48.2839 90,45.7143 "
         style="fill:#ffe000;fill-opacity:1;fill-rule:evenodd;stroke:none;stroke-width:1pt;stroke-opacity:1" />
      <polygon
         id="polygon592"
         points="90,5.71429 90.8264,8.28387 93.3507,7.3279 91.857,9.57615 94.1783,10.9537 91.4892,11.1876 91.8595,13.8613 90,11.9048 88.1405,13.8613 88.5108,11.1876 85.8217,10.9537 88.143,9.57615 86.6493,7.3279 89.1736,8.28387 90,5.71429 "
         style="fill:#ffe000;fill-opacity:1;fill-rule:evenodd;stroke:none;stroke-width:1pt;stroke-opacity:1" />
      <polygon
         id="polygon593"
         points="75,21.9643 75.8264,24.5339 78.3507,23.5779 76.857,25.8262 79.1783,27.2037 76.4892,27.4376 76.8595,30.1113 75,28.1548 73.1405,30.1113 73.5108,27.4376 70.8217,27.2037 73.143,25.8262 71.6493,23.5779 74.1736,24.5339 75,21.9643 "
         style="fill:#ffe000;fill-opacity:1;fill-rule:evenodd;stroke:none;stroke-width:1pt;stroke-opacity:1" />
      <polygon
         id="polygon594"
         points="103.333,17.9643 104.16,20.5339 106.684,19.5779 105.19,21.8262 107.512,23.2037 104.823,23.4376 105.193,26.1113 103.333,24.1548 101.474,26.1113 101.844,23.4376 99.1551,23.2037 101.476,21.8262 99.9826,19.5779 102.507,20.5339 103.333,17.9643 "
         style="fill:#ffe000;fill-opacity:1;fill-rule:evenodd;stroke:none;stroke-width:1pt;stroke-opacity:1" />
      <polygon
         id="polygon595"
         points="96,30 96.6531,31.6011 98.3776,31.7275 97.0567,32.8434 97.4695,34.5225 96,33.6111 94.5305,34.5225 94.9433,32.8434 93.6224,31.7275 95.3469,31.6011 96,30 "
         style="fill:#ffe000;fill-opacity:1;fill-rule:evenodd;stroke:none;stroke-width:1pt;stroke-opacity:1" />
    </g>
    <path
       style="fill:#ffe000;fill-opacity:1;fill-rule:evenodd;stroke:none;stroke-width:0.5;stroke-linecap:butt;stroke-linejoin:miter;stroke-miterlimit:4;stroke-dasharray:none;stroke-dashoffset:0;stroke-opacity:1"
       d="M 300.00002,87.50002 C 265.50001,87.50002 237.50002,115.5 237.50002,150.00002 C 237.50002,184.50004 265.49999,212.50003 300.00002,212.50003 C 316.17491,212.50003 330.782,206.18738 341.88371,196.09378 C 341.06617,196.4925 340.33762,197.03992 339.49655,197.39586 C 336.42049,198.69765 333.20801,199.70521 329.86114,200.39065 C 326.51426,201.0761 323.03644,201.43232 319.48787,201.43232 C 315.9393,201.43232 312.46148,201.0761 309.11461,200.39065 C 305.76773,199.70521 302.55526,198.69765 299.47919,197.39586 C 296.40312,196.09407 293.4914,194.47057 290.75523,192.62156 C 288.01906,190.77254 285.44348,188.69869 283.11634,186.37156 C 280.7892,184.04442 278.67195,181.46883 276.82294,178.73267 C 274.97392,175.9965 273.39383,173.08478 272.09204,170.00871 C 270.79024,166.93264 269.78269,163.72016 269.09724,160.37329 C 268.4118,157.02641 268.05558,153.54859 268.05558,150.00002 C 268.05558,146.45146 268.4118,142.97364 269.09724,139.62676 C 269.78269,136.27988 270.79024,133.06741 272.09204,129.99134 C 273.39383,126.91527 274.97392,124.00355 276.82294,121.26738 C 278.67195,118.53122 280.7892,115.95564 283.11634,113.62849 C 285.44348,111.30135 288.01906,109.22751 290.75523,107.37849 C 293.4914,105.52948 296.40312,103.90597 299.47919,102.60419 C 302.55526,101.3024 305.76773,100.29484 309.11461,99.609396 C 312.46148,98.92395 315.9393,98.567729 319.48787,98.567729 C 323.03644,98.567729 326.51426,98.92395 329.86114,99.609396 C 333.20801,100.29484 336.42049,101.3024 339.49655,102.60419 C 340.33762,102.96013 341.06617,103.50754 341.88371,103.90627 C 330.782,93.812668 316.17491,87.50002 300.00002,87.50002 z "
       id="path5893" />
    <path
       style="fill:#008000;fill-opacity:1;fill-rule:evenodd;stroke:none;stroke-width:0.25;stroke-linecap:butt;stroke-linejoin:miter;stroke-miterlimit:4;stroke-dasharray:none;stroke-opacity:1"
       d="M 110.93751,39.800362 C 111.07332,42.339714 110.81805,45.701466 109.76563,48.437517 C 108.69851,51.486066 107.53808,54.524877 107.59549,57.682309 C 105.89896,58.259363 104.15042,54.011024 102.51737,56.510434 C 103.74498,59.963791 106.57924,62.698225 108.52122,65.809544 C 108.84873,66.774141 111.64252,69.292762 110.02605,69.878491 C 105.94587,68.482057 104.9569,63.312615 102.426,60.172866 C 99.486736,54.889732 94.00673,51.155668 87.90233,50.897997 C 85.609261,50.958074 78.153325,50.329661 80.09322,54.256278 C 82.950162,56.198684 86.470493,57.465211 89.291672,59.64539 C 91.393433,59.842007 95.202992,63.350655 94.980924,64.676347 C 91.284395,63.179164 89.554205,61.384757 85.571547,59.809783 C 80.175214,57.725601 72.711129,58.979198 69.723184,64.334822 C 69.166211,65.729652 68.343896,69.794989 70.095492,70.18231 C 72.142161,66.986757 75.069862,63.414653 79.407795,64.372767 C 82.815189,64.638796 75.605613,70.720613 78.363502,69.496838 C 79.237398,69.109058 81.255368,67.784406 82.655267,67.64607 C 84.055165,67.507734 84.836993,68.555715 85.899127,68.70071 C 88.023394,68.9907 88.608365,69.881239 88.411465,70.399324 C 88.179158,71.010572 87.504254,70.488688 85.344781,71.173365 C 84.265045,71.515704 83.701007,72.464534 82.441583,72.898917 C 81.182159,73.333299 78.562219,73.364088 77.583173,72.978894 C 74.157774,71.491018 68.542162,71.750047 67.474374,76.042437 C 67.473436,77.930014 65.793677,75.833873 65.017366,76.649325 C 64.435252,78.70905 64.2847,80.823874 61.229678,80.636815 C 59.375194,82.582307 57.476117,84.596737 55.121532,85.980923 C 56.503371,89.152585 61.978538,82.795473 61.722581,85.475938 C 59.329098,88.739769 62.954075,89.426524 64.540893,86.914364 C 67.224689,84.07864 70.548878,80.627102 74.553411,83.48474 C 76.460792,85.280503 77.569109,82.535299 78.949659,82.682311 C 79.819439,84.912986 80.913824,82.792097 81.901048,82.161478 C 83.51709,81.960145 83.062409,84.179903 84.982646,82.81252 C 88.809614,80.279728 93.518001,82.407997 97.256355,79.943666 C 101.23562,78.130663 97.815035,81.403927 96.716717,82.683444 C 94.968329,86.074513 96.484596,90.526597 92.692124,92.632311 C 91.168741,96.673672 94.491966,102.00164 91.102438,104.99134 C 90.609367,106.86613 95.461627,106.65142 96.823458,107.4218 C 99.209779,107.51629 96.720903,101.96001 99.08855,101.2153 C 102.26377,103.18073 102.11512,97.700462 101.45942,96.010111 C 101.76723,92.167745 101.98408,87.966463 103.89345,84.486076 C 105.92336,80.220515 107.80215,86.223326 105.52981,87.91212 C 104.23904,91.834517 102.36019,96.742959 105.29515,100.39065 C 106.14103,100.57995 106.83559,102.63025 107.93081,103.26042 C 109.02604,103.89059 110.52195,103.10064 110.79499,101.23532 C 112.19979,95.61813 111.49211,89.577374 113.49827,84.114603 C 114.91425,82.422354 116.86752,83.841743 117.74558,85.397902 C 120.55691,88.661748 122.53305,92.741844 125.93682,95.431096 C 129.03583,96.881246 131.77645,99.074617 133.20474,102.26523 C 133.18563,104.72673 140.19605,105.10402 138.10105,102.36804 C 136.09103,99.70451 137.41727,97.040443 139.45314,95.269118 C 140.54353,95.538053 140.22125,93.58523 139.36633,94.357659 C 137.99756,94.034777 137.91002,91.529591 139.81256,92.720359 C 143.01706,93.754832 139.56274,90.401193 138.4045,90.298317 C 135.69499,88.618829 132.58196,86.686621 131.25001,83.767381 C 134.77714,83.80335 138.43845,85.705707 142.04295,84.525728 C 144.93209,83.041394 147.86255,84.64954 148.87154,87.1962 C 151.10487,86.83981 150.15271,84.600124 148.87154,83.854186 C 150.50506,83.180104 151.63476,81.782457 149.65409,80.549723 C 148.60801,79.184588 151.05683,76.856126 148.04689,76.953144 C 148.14516,74.653938 147.23999,72.550013 144.73377,71.755643 C 142.22315,69.629657 134.85564,74.887788 135.06946,70.095505 C 134.32712,67.48729 138.0622,69.747058 139.10591,68.446199 C 140.18438,65.69658 133.96682,65.964887 136.0184,63.833116 C 137.35833,62.970393 143.64621,61.73108 138.7152,60.808101 C 136.25405,61.484529 134.14184,60.983628 132.20487,59.765643 C 130.43955,62.718191 125.39878,58.162209 126.29703,63.411556 C 125.60745,65.389512 121.10193,70.528861 119.88287,66.591507 C 120.91992,63.505482 126.25761,62.496447 124.60259,58.335729 C 124.34853,55.738359 122.19507,58.78744 121.18057,58.593768 C 120.66683,56.977011 122.73432,55.071288 124.17536,54.687517 C 127.03475,56.886793 127.12136,51.91284 129.84074,52.317495 C 131.82616,51.876372 129.19961,51.024762 128.64584,50.651059 C 129.18993,49.197742 132.23786,48.455087 129.24916,47.193112 C 126.61212,45.236423 124.65758,49.140746 122.48265,49.348975 C 120.39505,46.992111 124.37798,45.85919 125.47744,44.618072 C 125.53651,43.692879 123.15502,44.338944 123.87154,43.533003 C 124.4939,42.420533 128.71089,42.337678 126.73612,40.668419 C 123.76201,39.647401 119.92449,39.901979 117.07077,41.224737 C 115.27296,41.806721 114.74403,45.871677 113.19445,45.703142 C 112.46587,43.893758 113.43167,40.323869 110.93751,39.800362 z M 125.00001,79.513908 C 127.26622,79.130157 125.04812,82.955437 123.95834,82.899325 C 124.05467,81.52482 120.68067,81.657104 122.77399,80.459545 C 123.45285,80.021184 124.20922,79.686813 125.00001,79.513908 z "
       id="path5908"
       sodipodi:nodetypes="cccccccccccccccsssssscccccccccccccccccccccsccccccccccccccccccccccccccccccccccccccccc" />
  </g>
</svg>

<?xml version="1.0" encoding="UTF-8"?>
<!-- Created with Inkscape (http://www.inkscape.org/) -->
<svg width="600" height="300" sodipodi:docbase="C:\Documents and Settings\David Nelson\Archives\Svg" sodipodi:docname="Flag of the Cocos (Keeling) Islands.svg" sodipodi:version="0.32" version="1.0" xmlns="http://www.w3.org/2000/svg" xmlns:cc="http://web.resource.org/cc/" xmlns:dc="http://purl.org/dc/elements/1.1/" xmlns:rdf="http://www.w3.org/1999/02/22-rdf-syntax-ns#" xmlns:sodipodi="http://inkscape.sourceforge.net/DTD/sodipodi-0.dtd">
  <sodipodi:namedview id="base" bordercolor="#666666" borderopacity="1.0" pagecolor="#ffffff"/>
  <metadata>
    <rdf:RDF>
      <cc:Work rdf:about="">
        <dc:format>image/svg+xml</dc:format>
        <dc:type rdf:resource="http://purl.org/dc/dcmitype/StillImage"/>
      </cc:Work>
    </rdf:RDF>
  </metadata>
  <g fill-rule="evenodd">
    <rect y="2.3706e-6" width="600" height="300" fill="#008000"/>
    <path transform="matrix(1.4153 0 0 1.4153 -1.115 -.30326)" d="m119.53 62.039a46.123 46.123 0 1 1-92.247 0 46.123 46.123 0 1 1 92.247 0z" fill="#ffe000" sodipodi:cx="73.407516" sodipodi:cy="62.039097" sodipodi:rx="46.12331" sodipodi:ry="46.12331" sodipodi:type="arc"/>
    <path d="m98.458 136.87h16.349s0.73798-1.4987-0.16463-2.248c-0.90261-0.74933-4.4184-0.91429-3.4685-3.565 1.9528-5.4497 2.2253-3.7694 3.4515-16.712 1.2262-12.943 1.8166-33.243 1.8166-33.243h-2.3615s0.45414 6.3126-0.90829 14.533c-1.3624 8.22-1.7712 8.9466-3.2698 15.259-1.4987 6.3126-1.7257 6.8576-3.0882 10.536s-1.4987 3.8602-3.6332 7.2663-1.3624 2.1345-2.5432 4.1781c-0.59039 1.0218-1.317 0.74934-1.7144 1.493-0.39738 0.74366-0.4655 2.5035-0.4655 2.5035z" fill="#802000" stroke="#7b3100" stroke-width="1.3889" sodipodi:nodetypes="ccsssccssssssc"/>
    <g transform="matrix(5 0 0 5 0 -1.4811e-5)" fill="#ffe000">
      <polygon points="90 45.714 90.826 48.284 93.351 47.328 91.857 49.576 94.178 50.954 91.489 51.188 91.86 53.861 90 51.905 88.14 53.861 88.511 51.188 85.822 50.954 88.143 49.576 86.649 47.328 89.174 48.284"/>
      <polygon points="90 5.7143 90.826 8.2839 93.351 7.3279 91.857 9.5762 94.178 10.954 91.489 11.188 91.86 13.861 90 11.905 88.14 13.861 88.511 11.188 85.822 10.954 88.143 9.5762 86.649 7.3279 89.174 8.2839"/>
      <polygon points="75 21.964 75.826 24.534 78.351 23.578 76.857 25.826 79.178 27.204 76.489 27.438 76.86 30.111 75 28.155 73.14 30.111 73.511 27.438 70.822 27.204 73.143 25.826 71.649 23.578 74.174 24.534"/>
      <polygon points="103.33 17.964 104.16 20.534 106.68 19.578 105.19 21.826 107.51 23.204 104.82 23.438 105.19 26.111 103.33 24.155 101.47 26.111 101.84 23.438 99.155 23.204 101.48 21.826 99.983 19.578 102.51 20.534"/>
      <polygon points="96 30 96.653 31.601 98.378 31.728 97.057 32.843 97.47 34.522 96 33.611 94.53 34.522 94.943 32.843 93.622 31.728 95.347 31.601"/>
    </g>
    <path d="m300 87.5c-34.5 0-62.5 28-62.5 62.5s28 62.5 62.5 62.5c16.175 0 30.782-6.3126 41.884-16.406-0.81754 0.39872-1.5461 0.94614-2.3872 1.3021-3.0761 1.3018-6.2885 2.3094-9.6354 2.9948-3.3469 0.68545-6.8247 1.0417-10.373 1.0417s-7.0264-0.35622-10.373-1.0417c-3.3469-0.68544-6.5594-1.693-9.6354-2.9948s-5.9878-2.9253-8.724-4.7743-5.3118-3.9229-7.6389-6.25-4.4444-4.9027-6.2934-7.6389-3.4291-5.6479-4.7309-8.724-2.3094-6.2886-2.9948-9.6354c-0.68544-3.3469-1.0417-6.8247-1.0417-10.373 0-3.5486 0.35622-7.0264 1.0417-10.373 0.68545-3.3469 1.693-6.5594 2.9948-9.6354 1.3018-3.0761 2.8819-5.9878 4.7309-8.724s3.9663-5.3117 6.2934-7.6389c2.3271-2.3271 4.9027-4.401 7.6389-6.25s5.6479-3.4725 8.724-4.7743 6.2885-2.3094 9.6354-2.9948c3.3469-0.68545 6.8247-1.0417 10.373-1.0417s7.0264 0.35622 10.373 1.0417c3.3469 0.68544 6.5594 1.693 9.6354 2.9948 0.84107 0.35594 1.5696 0.90335 2.3872 1.3021-11.102-10.094-25.709-16.406-41.884-16.406z" fill="#ffe000"/>
    <path d="m110.94 39.8c0.13581 2.5394-0.11946 5.9011-1.1719 8.6372-1.0671 3.0485-2.2276 6.0874-2.1701 9.2448-1.6965 0.57705-3.4451-3.6713-5.0781-1.1719 1.2276 3.4534 4.0619 6.1878 6.0038 9.2991 0.32751 0.9646 3.1213 3.4832 1.5048 4.0689-4.0802-1.3964-5.0692-6.5659-7.6-9.7056-2.9393-5.2831-8.4193-9.0172-14.524-9.2749-2.2931 0.060077-9.749-0.56834-7.8091 3.3583 2.8569 1.9424 6.3773 3.2089 9.1985 5.3891 2.1018 0.19662 5.9113 3.7053 5.6893 5.031-3.6965-1.4972-5.4267-3.2916-9.4094-4.8666-5.3963-2.0842-12.86-0.83058-15.848 4.525-0.55697 1.3948-1.3793 5.4602 0.37231 5.8475 2.0467-3.1956 4.9744-6.7677 9.3123-5.8095 3.4074 0.26603-3.8022 6.3478-1.0443 5.1241 0.8739-0.38778 2.8919-1.7124 4.2918-1.8508 1.3999-0.13834 2.1817 0.90964 3.2439 1.0546 2.1243 0.28999 2.7092 1.1805 2.5123 1.6986-0.23231 0.61125-0.90721 0.089364-3.0667 0.77404-1.0797 0.34234-1.6438 1.2912-2.9032 1.7256-1.2594 0.43438-3.8794 0.46517-4.8584 0.079977-3.4254-1.4879-9.041-1.2288-10.109 3.0635-9.38e-4 1.8876-1.6807-0.20856-2.457 0.60689-0.58211 2.0597-0.73267 4.1745-3.7877 3.9875-1.8545 1.9455-3.7536 3.9599-6.1081 5.3441 1.3818 3.1717 6.857-3.1854 6.601-0.50498-2.3935 3.2638 1.2315 3.9506 2.8183 1.4384 2.6838-2.8357 6.008-6.2873 10.013-3.4296 1.9074 1.7958 3.0157-0.94944 4.3962-0.80243 0.86978 2.2307 1.9642 0.10979 2.9514-0.52083 1.616-0.20133 1.1614 2.0184 3.0816 0.65104 3.827-2.5328 8.5354-0.40452 12.274-2.8689 3.9793-1.813 0.55868 1.4603-0.53964 2.7398-1.7484 3.3911-0.23212 7.8432-4.0246 9.9489-1.5234 4.0414 1.7998 9.3693-1.5897 12.359-0.49307 1.8748 4.3592 1.6601 5.721 2.4305 2.3863 0.09449-0.10256-5.4618 2.2651-6.2065 3.1752 1.9654 3.0266-3.5148 2.3709-5.2052 0.30781-3.8424 0.52466-8.0436 2.434-11.524 2.0299-4.2656 3.9087 1.7372 1.6364 3.426-1.2908 3.9224-3.1696 8.8308-0.23466 12.479 0.84588 0.1893 1.5404 2.2396 2.6357 2.8698 1.0952 0.63017 2.5911-0.15978 2.8642-2.0251 1.4048-5.6172 0.69712-11.658 2.7033-17.121 1.416-1.6922 3.3692-0.27286 4.2473 1.2833 2.8113 3.2638 4.7875 7.3439 8.1912 10.033 3.099 1.4502 5.8396 3.6435 7.2679 6.8341-0.01911 2.4615 6.9913 2.8388 4.8963 0.10281-2.01-2.6635-0.68378-5.3276 1.3521-7.0989 1.0904 0.26894 0.76811-1.6839-0.08681-0.91146-1.3688-0.32288-1.4563-2.8281 0.44623-1.6373 3.2045 1.0345-0.24982-2.3192-1.4081-2.422-2.7095-1.6795-5.8225-3.6117-7.1545-6.5309 3.5271 0.035969 7.1884 1.9383 10.793 0.75835 2.8891-1.4843 5.8196 0.12381 6.8286 2.6705 2.2333-0.35639 1.2812-2.5961 0-3.342 1.6335-0.67408 2.7632-2.0717 0.78255-3.3045-1.0461-1.3651 1.4027-3.6936-1.6072-3.5966 0.09827-2.2992-0.8069-4.4031-3.3131-5.1975-2.5106-2.126-9.8781 3.1321-9.6643-1.6601-0.74234-2.6082 2.9927-0.34845 4.0364-1.6493 1.0785-2.7496-5.1391-2.4813-3.0875-4.6131 1.3399-0.86272 7.6278-2.102 2.6968-3.025-2.4612 0.67643-4.5734 0.17553-6.5103-1.0425-1.7653 2.9525-6.8061-1.6034-5.9078 3.6459-0.68958 1.978-5.1951 7.1173-6.4142 3.18 1.037-3.086 6.3747-4.0951 4.7197-8.2558-0.25406-2.5974-2.4075 0.45171-3.422 0.25804-0.51374-1.6168 1.5538-3.5225 2.9948-3.9063 2.8594 2.1993 2.946-2.7747 5.6654-2.37 1.9854-0.44112-0.64113-1.2927-1.1949-1.6664 0.54409-1.4533 3.592-2.196 0.60332-3.4579-2.637-1.9567-4.5916 1.9476-6.7665 2.1559-2.0876-2.3569 1.8953-3.4898 2.9948-4.7309 0.05907-0.92519-2.3224-0.27913-1.6059-1.0851 0.62236-1.1125 4.8394-1.1953 2.8646-2.8646-2.9741-1.021-6.8116-0.76644-9.6654 0.55632-1.7978 0.58198-2.3267 4.6469-3.8763 4.4784-0.72858-1.8094 0.23722-5.3793-2.2569-5.9028zm14.062 39.714c2.2662-0.38375 0.04811 3.4415-1.0417 3.3854 0.09633-1.3745-3.2777-1.2422-1.1844-2.4398 0.67886-0.43836 1.4352-0.77273 2.226-0.94564z" fill="#008000" sodipodi:nodetypes="cccccccccccccccsssssscccccccccccccccccccccsccccccccccccccccccccccccccccccccccccccccc"/>
  </g>
</svg>
